public/icons/instagram.svg

<svg width="22" height="22" viewBox="0 0 22 22" fill="none" xmlns="http://www.w3.org/2000/svg">
<path d="M17 6H17.01M6 1H16C18.7614 1 21 3.23858 21 6V16C21 18.7614 18.7614 21 16 21H6C3.23858 21 1 18.7614 1 16V6C1 3.23858 3.23858 1 6 1ZM14.9567 10.4133C15.0802 11.2455 14.938 12.0955 14.5505 12.8423C14.163 13.5891 13.5499 14.1947 12.7984 14.5729C12.0468 14.9512 11.1952 15.0829 10.3645 14.9492C9.53386 14.8155 8.7665 14.4234 8.17158 13.8284C7.57666 13.2335 7.18447 12.4661 7.05081 11.6355C6.91714 10.8048 7.0488 9.95316 7.42706 9.20164C7.80533 8.45012 8.41092 7.83701 9.15772 7.44951C9.90452 7.06201 10.7545 6.91986 11.5867 7.04327C12.4357 7.16915 13.2216 7.56473 13.8284 8.17158C14.4353 8.77842 14.8309 9.56435 14.9567 10.4133Z" stroke="currentColor" stroke-linecap="round" stroke-linejoin="round"/>
</svg>

<svg xmlns="http://www.w3.org/2000/svg" width="22" height="22" viewBox="0 0 22 22" fill="none"><path stroke="" stroke-linecap="round" stroke-linejoin="round" d="M17 6h.01M6 1h10a5 5 0 0 1 5 5v10a5 5 0 0 1-5 5H6a5 5 0 0 1-5-5V6a5 5 0 0 1 5-5Zm8.957 9.413a4 4 0 1 1-7.912 1.174 4 4 0 0 1 7.912-1.174Z"/></svg>
